svg/solid/bxs-first-aid.svg

<svg xmlns="http://www.w3.org/2000/svg" width="24" height="24" viewBox="0 0 24 24"><path fill="none" d="M9 4H15V6H9zM13 9L11 9 11 12 8 12 8 14 11 14 11 17 13 17 13 14 16 14 16 12 13 12z"/><path d="M20,6h-3V4c0-1.103-0.897-2-2-2H9C7.897,2,7,2.897,7,4v2H4C2.896,6,2,6.896,2,8v10c0,1.104,0.896,2,2,2h16 c1.104,0,2-0.896,2-2V8C22,6.896,21.104,6,20,6z M9,4h6v2H9V4z M16,14h-3v3h-2v-3H8v-2h3V9h2v3h3V14z"/></svg>

<svg xmlns="http://www.w3.org/2000/svg" width="24" height="24"><path fill="none" d="M9 4h6v2H9zm4 5h-2v3H8v2h3v3h2v-3h3v-2h-3z"/><path d="M20 6h-3V4c0-1.103-.897-2-2-2H9c-1.103 0-2 .897-2 2v2H4a2 2 0 0 0-2 2v10a2 2 0 0 0 2 2h16a2 2 0 0 0 2-2V8a2 2 0 0 0-2-2zM9 4h6v2H9V4zm7 10h-3v3h-2v-3H8v-2h3V9h2v3h3v2z"/></svg>
